X:621
T: Qunian zhenyuejian
N: C2140
O: China, Hubei Xunxian
S: I, 382]
R: Xiaodiao]
M: 2/4
L: 1/16
K: D
B3Be2e2 | BcB2A4 | e2e2e2A2 | B2F2E4
e3ee2e2 | B2cBA4 | BcBABcBA | B2F2E4
E2E2A2A2 | EEEEA2A2 | e2e2B2A2 | E2E2A3B | F2EDE4
e2e2B2A2 | E2E2A3B | f2ede2z2

